arrow-left-bold-outline.svg

<svg fill="currentColor" viewBox="0 0 24 24"><path d="M13 22 3 12 13 2v6h8v8h-8zM6 12l5 5v-3h8v-4h-8V7z"/></svg>

<svg  viewBox="0 0 24 24" fill="currentColor"><path  d="M13,22L3,12L13,2V8H21V16H13V22M6,12L11,17V14H19V10H11V7L6,12Z"/></svg>
